americans/img/discord.svg

<svg width="22" height="22" viewBox="0 0 22 22" fill="none" xmlns="http://www.w3.org/2000/svg">
<g clip-path="url(#clip0_915_3235)">
<path d="M18.6244 4.11756C17.2219 3.48506 15.7185 3.01756 14.1464 2.75173C14.1324 2.74904 14.1179 2.75077 14.105 2.75668C14.092 2.7626 14.0812 2.7724 14.074 2.78473C13.8815 3.12298 13.667 3.56389 13.5167 3.91223C11.8494 3.66311 10.1543 3.66311 8.48694 3.91223C8.3195 3.52618 8.13068 3.14977 7.92136 2.78473C7.91426 2.77225 7.90353 2.76222 7.89059 2.756C7.87765 2.74978 7.86312 2.74765 7.84894 2.74989C6.27777 3.01573 4.77444 3.48323 3.37102 4.11664C3.35895 4.12171 3.34871 4.13034 3.34169 4.14139C0.489024 8.33514 -0.292893 12.4253 0.0911906 16.4641C0.0922593 16.474 0.0953298 16.4836 0.100215 16.4923C0.1051 16.5009 0.111698 16.5085 0.119607 16.5146C1.78463 17.7268 3.64175 18.6502 5.61319 19.2462C5.62693 19.2505 5.64163 19.2504 5.65537 19.2462C5.66911 19.2419 5.68124 19.2336 5.69019 19.2224C6.11442 18.655 6.49035 18.0531 6.81402 17.423C6.81852 17.4144 6.82111 17.4049 6.82162 17.3952C6.82213 17.3855 6.82055 17.3758 6.81698 17.3667C6.81342 17.3577 6.80796 17.3495 6.80096 17.3428C6.79397 17.336 6.7856 17.3309 6.77644 17.3276C6.18428 17.1046 5.61052 16.8355 5.06044 16.5228C5.05056 16.5172 5.04223 16.5092 5.0362 16.4995C5.03017 16.4899 5.02664 16.4789 5.02591 16.4675C5.02519 16.4561 5.02729 16.4448 5.03204 16.4344C5.03678 16.4241 5.04402 16.4151 5.05311 16.4082C5.16861 16.323 5.28411 16.2341 5.39411 16.1451C5.40401 16.1371 5.41594 16.1321 5.42856 16.1304C5.44118 16.1288 5.45401 16.1307 5.46561 16.136C9.06536 17.753 12.9639 17.753 16.5215 16.136C16.5332 16.1304 16.5461 16.1283 16.5589 16.1297C16.5717 16.1312 16.5839 16.1362 16.5939 16.1442C16.7039 16.2341 16.8185 16.323 16.9349 16.4082C16.9441 16.4149 16.9515 16.4238 16.9564 16.4341C16.9613 16.4443 16.9635 16.4556 16.963 16.467C16.9625 16.4783 16.9591 16.4894 16.9532 16.4991C16.9474 16.5089 16.9392 16.517 16.9294 16.5228C16.3813 16.8381 15.8111 17.1049 15.2125 17.3267C15.2033 17.3301 15.195 17.3353 15.188 17.3422C15.181 17.349 15.1755 17.3572 15.1719 17.3663C15.1684 17.3755 15.1668 17.3852 15.1673 17.395C15.1678 17.4047 15.1704 17.4143 15.1749 17.423C15.5049 18.0527 15.8826 18.6522 16.2979 19.2215C16.3065 19.2332 16.3185 19.2419 16.3323 19.2465C16.3461 19.2511 16.3609 19.2513 16.3749 19.2471C18.3497 18.6528 20.2098 17.7289 21.8767 16.5146C21.8848 16.5089 21.8916 16.5015 21.8967 16.493C21.9018 16.4844 21.9049 16.4749 21.906 16.4651C22.3644 11.7956 21.1379 7.73839 18.6528 4.14323C18.6467 4.13154 18.6366 4.12244 18.6244 4.11756ZM7.35211 14.0047C6.26861 14.0047 5.37486 13.0248 5.37486 11.8231C5.37486 10.6204 6.25119 9.64139 7.35211 9.64139C8.46127 9.64139 9.34677 10.6286 9.32936 11.8231C9.32936 13.0257 8.45302 14.0047 7.35211 14.0047ZM14.6625 14.0047C13.5781 14.0047 12.6853 13.0248 12.6853 11.8231C12.6853 10.6204 13.5607 9.64139 14.6625 9.64139C15.7717 9.64139 16.6572 10.6286 16.6398 11.8231C16.6398 13.0257 15.7726 14.0047 14.6625 14.0047Z" fill="#FFF8DC"/>
</g>
<defs>
<clipPath id="clip0_915_3235">
<rect width="22" height="22" fill="white"/>
</clipPath>
</defs>
</svg>

<svg width="22" height="22" fill="none" xmlns="http://www.w3.org/2000/svg"><g clip-path="url(#a)"><path d="M18.624 4.118a18.33 18.33 0 0 0-4.478-1.366.068.068 0 0 0-.072.033c-.192.338-.407.779-.557 1.127a17.019 17.019 0 0 0-5.03 0 11.328 11.328 0 0 0-.566-1.127.07.07 0 0 0-.072-.035A18.316 18.316 0 0 0 3.37 4.117a.064.064 0 0 0-.03.024C.49 8.335-.292 12.425.092 16.464a.074.074 0 0 0 .029.05 18.361 18.361 0 0 0 5.493 2.732.071.071 0 0 0 .077-.024c.424-.567.8-1.169 1.124-1.799a.068.068 0 0 0-.038-.095 12.104 12.104 0 0 1-1.716-.805.068.068 0 0 1-.034-.055.069.069 0 0 1 .027-.06 9.71 9.71 0 0 0 .341-.263.07.07 0 0 1 .072-.009c3.6 1.617 7.498 1.617 11.055 0a.069.069 0 0 1 .073.008c.11.09.224.179.34.264a.068.068 0 0 1 .02.091.068.068 0 0 1-.025.024c-.548.315-1.118.582-1.716.804a.069.069 0 0 0-.046.068c0 .01.003.02.008.028.33.63.708 1.23 1.123 1.799a.07.07 0 0 0 .077.025 18.3 18.3 0 0 0 5.502-2.732.071.071 0 0 0 .029-.05c.458-4.67-.768-8.727-3.253-12.322a.055.055 0 0 0-.029-.025ZM7.352 14.005c-1.083 0-1.977-.98-1.977-2.182 0-1.203.876-2.182 1.977-2.182 1.11 0 1.995.988 1.977 2.182 0 1.203-.876 2.182-1.977 2.182Zm7.31 0c-1.084 0-1.977-.98-1.977-2.182 0-1.203.876-2.182 1.977-2.182 1.11 0 1.995.988 1.978 2.182 0 1.203-.867 2.182-1.978 2.182Z" fill="#FFF8DC"/></g><defs><clipPath id="a"><path fill="#fff" d="M0 0h22v22H0z"/></clipPath></defs></svg>
